X:277
T:Sarah
R:Reel
C:Lee Anne Welch
O:USA
S:Lee Anne Welch
Z:Transcription, chords:Mike Long
M:C|
L:1/4
K:D
A,|\
"D"DFE>D|"A"EA2A,|"D"DFE>D|"G"EB,2A,|\
"D"DFE>D|"A"EA2A|"G"BA"(A)"E>A|"D"ED2:|
|:A/c/|\
"D"dd/c/ d/A/F|"G"GB BA/c/|"D"dd/c/ d/A/F|"A"E3 A/c/|\
"D"dd/c/ d/A/F|"G"GB BA|"D"FA"A"E>A|"D"ED2:|
